X:1
T:Title
%%score ( 1 2 ) { 3 | 4 }
L:1/8
M:4/4
K:E
V:1 treble nm="Bright Piano"
V:2 treble 
V:3 bass nm="Bright Piano"
V:4 bass 
V:1
 z4 z2[Q:1/4=100] E[EF] | [EG]3 [EG] [EA]2 [EG]2 | [EG]2 [DF]4 [DF][EG] | [FA]3 [Ac] [GB]2 [FA]2 | %4
[M:3/4] [EG]6 |[M:1/4] E[EF] |[M:4/4] [EG]3 [EG] [EA]2 [EG]2 | [EG]2 [DF]4 [DF][EG] | %8
 [FA]3 [Ac] [GB]2 [FA]2 |[M:3/4] [EG]6 |[M:1/4] EE |[M:4/4] [Ec]3 [Ec] [EB]2 [DA]2 | %12
 [EG]2 [EB]4 [EB][EB] | [Ec]3 [EB] [EG]2 E2 |[M:3/4] [DB]6 |[M:1/4] GF | %16
[M:4/4] [CE]3 [CE] [DF]2 [EG]2 | [EA]2 [Ac]4 [Ec][Ec] | [EB]3 E [EG]2 [DF]2 |[M:3/4] E6 |] %20
V:2
 x8 | x8 | x8 | x8 |[M:3/4] x6 |[M:1/4] x2 |[M:4/4] x8 | x8 | x8 |[M:3/4] x6 |[M:1/4] x2 | %11
[M:4/4] x8 | x8 | x8 |[M:3/4] x6 |[M:1/4] D2 |[M:4/4] x8 | x8 | x8 |[M:3/4] x6 |] %20
V:3
 z4 z2 G,A, | B,3 B, C2 B,2 | B,2 B,4 B,2 | B,3 B, B,2 B,2 |[M:3/4] B,6 |[M:1/4] G,A, | %6
[M:4/4] B,3 B, C2 B,2 | B,2 B,4 B,2 | B,3 B, B,2 B,2 |[M:3/4] B,6 |[M:1/4] G,G, | %11
[M:4/4] A,3 A, B,2 B,2 | B,2 G,4 G,2 | A,3 B, B,2 G,2 |[M:3/4] F,6 |[M:1/4] B,A, | %16
[M:4/4] G,3 G, B,2 =D2 | C2 E4 A,2 | G,3 G, B,2 A,2 |[M:3/4] G,6 |] %20
V:4
 z4 z2 E,E, | E,3 E, E,2 E,2 | B,,2 B,,4 B,,2 | B,,3 B,, C,2 D,2 |[M:3/4] E,6 |[M:1/4] E,E, | %6
[M:4/4] E,3 E, E,2 E,2 | B,,2 B,,4 B,,2 | B,,3 B,, C,2 D,2 |[M:3/4] E,6 |[M:1/4] E,E, | %11
[M:4/4] z4 G,2 F,2 | E,2 E,4 E,2 | z2 z G, E,2 E,2 |[M:3/4] B,,6 |[M:1/4] B,,2 | %16
[M:4/4] C,3 C, B,,2 E,2 | A,,2 A,,4 A,,2 | B,,3 B,, B,,2 B,,2 |[M:3/4] E,6 |] %20

